X:65
T: SCHWERIN DER HAT UNS KOMMANDIERT
N: B0087
O: Europa, Mitteleuropa, Deutschland, Preussen
R: Helden -, Ehren -, Gedaechtnis -, Kriegs - Lied
M: 2/4
L: 1/16
K: Eb
B,2 | E2DCB,2B,2 | C2C2B,2
B,2 | C2C2B,2
E2 | B,3A,G,2A,2 | B,CB,A,G,2
G,2 | F,E,F,G,A,A,A,A, | G,F,G,A,B,2
G,G, | A,G,A,B,C2
D2 | E2EEFFFE | D2D2E2
G,B, | B,2B,2B,2A,G, | C2C2B,2
B,2 | E2EEFFFE | D2D2E2

@@@ Tune index: 1868
